X: 20421
T: Simon Brodie
%R: reel
B: James Oswald "The Caledonian Pocket Companion" v.2 p.42
Z: 2019 John Chambers <jc:trillian.mit.edu>
N: "Modertly" is how it was spelled.
M: C
L: 1/8
K: E
|: "_Modertly Quick"\
E2E2 G3A | F2D2 F2A2 | E2E2 G3A | B2E2 G2B2 |\
d2d2 (ed)(cB) | A2D2 F2A2 | E2E2 G3A | B2E2 G2B2 ::\
e3f gbag | f2d2 f2a2 |
e2e2 g2e2 | b2g2 e2B2 |\
d2d2 (ed)(^cB) | A2D2 F2A2 | E3F GBAc | B2E2 G2B2 ::\
EG(TFE) BG(TFE) | DE(FG) AF(TED) |
EG(TFE) BG(TFE) | eG(TFE) BG(TFE) |\
d3f (ed)(^cA) | A2D2 FGAF | E2E2 G3A | B2E2 G2B2 ::\
eg(Tfe) bg(Tfe) | defg af(Ted) |
eg(Tfe) bg(Tfe) | Bg(Tfe) bg(Tfe) |\
d3f (ed)(^cB) | A2D2 F2d2 | e2EF GBAc | B2E2 G2B2 ::\
EBGE eBGE | DAFD dA FD |
EBGE eB GE | eB GE eB GE |\
g2g2 (ag)(fe) | d2D2 F2A2 | e2E2 G3A | B2E2 G2B2 ::\
(b2g2).e2.B2 | d2D2 F2A2 |
(b2g2) .e2.B2 | (b2g2) .e2.B2 |\
dfag fdeB | d2D2 FA df | e2EF GBAc | B2E2 G2B2 ::\
.E2.E2 (G2B2) | (bg)(bg) e2E2 |
d2D2 (F2A2) | (af)(af) d2D2 |\
e2E2 (G2B2) | eg(Tfe) fa(Tgf) | gb(Tag) fa(Tgf) | e2E2 G2B2 ::\
(3(bag) .g.g (bg)(bg) |
(3(agf) .f.f (af)(af) | (3(gfe) .e.e (ge)(ge) | f2B2 d2f2 |\
(3(bag) .g.g (3(bag) .g.g | (3(agf) .f.f (3(agf) .f.f | E3F GBAc | B2E2 G2B2 :|


